X:38
T:Reel 38
M:4/4
K:Gmaj
L:1/8
dc|B>G (3GGG BGdc|B>G (3GGG d2cB|AaAa cAAc|cAeA cAdc|BGG>B GGdGBG|B>G (3GGG d2gb|c'abg afge|dBAB G2|Bd|g2bg agbg|dgfg add2|a2ag c'bag|edef gfga|aggg ageg|dgbg egdg|bgaf gfed|ee'ef gabg|
